assets/images/dry_icon_sml.svg

<svg height="97" viewBox="0 0 97 97" width="97" xmlns="http://www.w3.org/2000/svg" xmlns:xlink="http://www.w3.org/1999/xlink"><defs><path id="a" d="m59.6384964 11.6387033v8.2631822l5.8432275-5.8426969c4.5420443-4.54278713 11.9172555-4.54278713 16.4594059 0 4.5420443 4.5417259 4.5420443 11.9167248 0 16.4595119l-5.8432276 5.842697h8.2635006c6.4234649 0 11.6385972 5.2155568 11.6385972 11.6387033s-5.2151323 11.6387033-11.6385972 11.6387033h-8.2635006l5.8432276 5.842697c4.5420443 4.5427871 4.5420443 11.917786 0 16.459512-4.5421504 4.542787-11.9173616 4.542787-16.4594059 0l-5.8432275-5.842697v8.2631822c0 6.4231465-5.2150262 11.6387033-11.6384964 11.6387033-6.4235657 0-11.6385919-5.2155568-11.6385919-11.6387033v-8.2631822l-5.8431214 5.842697c-4.5421504 4.542787-11.9173616 4.542787-16.4594059 0-4.54215037-4.541726-4.54215037-11.9167249 0-16.459512l5.8431215-5.842697h-8.2633945c-6.42357098 0-11.6386078-5.2155568-11.6386078-11.6387033s5.21503682-11.6387033 11.6386078-11.6387033h8.2633945l-5.8431215-5.842697c-4.54215037-4.5427871-4.54215037-11.917786 0-16.4595119 4.5420443-4.54278713 11.9172555-4.54278713 16.4594059 0l5.8431214 5.8426969v-8.2631822c0-6.42314652 5.2150262-11.6387033 11.6385919-11.6387033 6.4234702 0 11.6384964 5.21555678 11.6384964 11.6387033z"/></defs><g fill="none" fill-rule="evenodd" transform="translate(.4498 .24)" xlink:href="#a"><path d="m19.9020023 59.6388041h-8.2633945c-6.42357098 0-11.6386078-5.2155568-11.6386078-11.6387033s5.21503682-11.6387033 11.6386078-11.6387033h8.2633945l-5.8431215-5.842697c-4.54215037-4.5427871-4.54215037-11.917786 0-16.4595119 4.5420443-4.54278713 11.9172555-4.54278713 16.4594059 0l5.8431214 5.8426969v-8.2631822c0-6.42314652 5.2150262-11.6387033 11.6385919-11.6387033 6.4234702 0 11.6384964 5.21555678 11.6384964 11.6387033v8.2631822l5.8432275-5.8426969c4.5420443-4.54278713 11.9172555-4.54278713 16.4594059 0 4.5420443 4.5417259 4.5420443 11.9167248 0 16.4595119l-5.8432276 5.842697h8.2635006c6.4234649 0 11.6385972 5.2155568 11.6385972 11.6387033s-5.2151323 11.6387033-11.6385972 11.6387033h-8.2635006l5.8432276 5.842697c4.5420443 4.5427871 4.5420443 11.917786 0 16.459512-4.5421504 4.542787-11.9173616 4.542787-16.4594059 0l-5.8432275-5.842697v8.2631822c0 6.4231465-5.2150262 11.6387033-11.6384964 11.6387033-6.4235657 0-11.6385919-5.2155568-11.6385919-11.6387033v-8.2631822l-5.8431214 5.842697c-4.5421504 4.542787-11.9173616 4.542787-16.4594059 0-4.54215037-4.541726-4.54215037-11.9167249 0-16.459512z" fill="#ff8000"/><path d="m48.6513397 25.2585754c11.9467555 0 21.6460994 9.6989194 21.6460994 21.6464177 0 11.946437-9.6993439 21.6464176-21.6460994 21.6464176-11.9468615 0-21.6462054-9.6999806-21.6462054-21.6464176 0-11.9474983 9.6993439-21.6464177 21.6462054-21.6464177z" fill="#ffc266"/></g></svg>

<?xml version="1.0" encoding="UTF-8"?>
<svg width="97px" height="97px" viewBox="0 0 97 97" version="1.1" xmlns="http://www.w3.org/2000/svg" xmlns:xlink="http://www.w3.org/1999/xlink">
    <title>dry_icon_sml</title>
    <defs>
        <path d="M59.6384964,11.6387033 L59.6384964,19.9018855 L65.4817239,14.0591886 C70.0237682,9.51640147 77.3989794,9.51640147 81.9411298,14.0591886 C86.4831741,18.6009145 86.4831741,25.9759134 81.9411298,30.5187005 L76.0979022,36.3613975 L84.3614028,36.3613975 C90.7848677,36.3613975 96,41.5769543 96,48.0001008 C96,54.4232473 90.7848677,59.6388041 84.3614028,59.6388041 L76.0979022,59.6388041 L81.9411298,65.4815011 C86.4831741,70.0242882 86.4831741,77.3992871 81.9411298,81.9410131 C77.3989794,86.4838001 70.0237682,86.4838001 65.4817239,81.9410131 L59.6384964,76.0983161 L59.6384964,84.3614983 C59.6384964,90.7846448 54.4234702,96.0002016 48,96.0002016 C41.5764343,96.0002016 36.3614081,90.7846448 36.3614081,84.3614983 L36.3614081,76.0983161 L30.5182867,81.9410131 C25.9761363,86.4838001 18.6009251,86.4838001 14.0588808,81.9410131 C9.51673043,77.3992871 9.51673043,70.0242882 14.0588808,65.4815011 L19.9020023,59.6388041 L11.6386078,59.6388041 C5.21503682,59.6388041 0,54.4232473 0,48.0001008 C0,41.5769543 5.21503682,36.3613975 11.6386078,36.3613975 L19.9020023,36.3613975 L14.0588808,30.5187005 C9.51673043,25.9759134 9.51673043,18.6009145 14.0588808,14.0591886 C18.6009251,9.51640147 25.9761363,9.51640147 30.5182867,14.0591886 L36.3614081,19.9018855 L36.3614081,11.6387033 C36.3614081,5.21555678 41.5764343,0 48,0 C54.4234702,0 59.6384964,5.21555678 59.6384964,11.6387033 Z" id="path-1"></path>
    </defs>
    <g id="dry_icon_sml" stroke="none" fill="none" transform="translate(0.4498, 0.24)" xlink:href="#path-1" fill-rule="evenodd">
        <path d="M19.9020023,59.6388041 L11.6386078,59.6388041 C5.21503682,59.6388041 0,54.4232473 0,48.0001008 C0,41.5769543 5.21503682,36.3613975 11.6386078,36.3613975 L19.9020023,36.3613975 L14.0588808,30.5187005 C9.51673043,25.9759134 9.51673043,18.6009145 14.0588808,14.0591886 C18.6009251,9.51640147 25.9761363,9.51640147 30.5182867,14.0591886 L36.3614081,19.9018855 L36.3614081,11.6387033 C36.3614081,5.21555678 41.5764343,0 48,0 C54.4234702,0 59.6384964,5.21555678 59.6384964,11.6387033 L59.6384964,19.9018855 L65.4817239,14.0591886 C70.0237682,9.51640147 77.3989794,9.51640147 81.9411298,14.0591886 C86.4831741,18.6009145 86.4831741,25.9759134 81.9411298,30.5187005 L76.0979022,36.3613975 L84.3614028,36.3613975 C90.7848677,36.3613975 96,41.5769543 96,48.0001008 C96,54.4232473 90.7848677,59.6388041 84.3614028,59.6388041 L76.0979022,59.6388041 L81.9411298,65.4815011 C86.4831741,70.0242882 86.4831741,77.3992871 81.9411298,81.9410131 C77.3989794,86.4838001 70.0237682,86.4838001 65.4817239,81.9410131 L59.6384964,76.0983161 L59.6384964,84.3614983 C59.6384964,90.7846448 54.4234702,96.0002016 48,96.0002016 C41.5764343,96.0002016 36.3614081,90.7846448 36.3614081,84.3614983 L36.3614081,76.0983161 L30.5182867,81.9410131 C25.9761363,86.4838001 18.6009251,86.4838001 14.0588808,81.9410131 C9.51673043,77.3992871 9.51673043,70.0242882 14.0588808,65.4815011 L19.9020023,59.6388041 Z" id="Fill-2" fill="#FF8000"></path>
        <path d="M48.6513397,25.2585754 C60.5980952,25.2585754 70.2974391,34.9574948 70.2974391,46.9049931 C70.2974391,58.8514301 60.5980952,68.5514107 48.6513397,68.5514107 C36.7044782,68.5514107 27.0051343,58.8514301 27.0051343,46.9049931 C27.0051343,34.9574948 36.7044782,25.2585754 48.6513397,25.2585754 Z" id="Fill-6" fill="#FFC266"></path>
    </g>
</svg>
